X: 106204
Q: "Reel."
M: C
L: 1/8
K: Em
|: B |\
E<E BE dEBe | dBAF DEFD |\
E<E BE dEBe | dBAF (B2E :|\
Eeef gfed | BdBG DEFD |
Eeef gfed | BdAF B2(EF) |\
Eeef gfed | BdAF DEFA |\
afge fde^c | dBAF (B2E) |]\
"_Fine"{e}e4 ||



